X:1
T:Geraldine Cotter's Polka
M:2/4
L:1/8
R:polka
K:Dmaj
|: G>A BG | EG ED | G>A Bd | BA A2 |
G>A BG | EG ED | BG D/E/F/G/ | AG G2 :|
|: d>B GA | BG ED | d>B GA | BA A2 |
d>B GA | BG ED | BG D/E/F/G/ | AG G2 :|
